templates/main/build/images/sale.svg

<?xml version="1.0" encoding="utf-8"?>
<svg width="46px" height="46px" viewBox="0 0 46 46" version="1.1" xmlns:xlink="http://www.w3.org/1999/xlink" xmlns="http://www.w3.org/2000/svg">
  <desc>Created with Lunacy</desc>
  <defs>
    <path d="M9.999 0L22.001 0Q22.2465 0 22.4916 0.0120442Q22.7368 0.0240885 22.9811 0.0481479Q23.2254 0.0722074 23.4682 0.108224Q23.711 0.144241 23.9517 0.192128Q24.1924 0.240015 24.4306 0.299657Q24.6687 0.3593 24.9036 0.430553Q25.1384 0.501807 25.3696 0.584501Q25.6007 0.667194 25.8274 0.761128Q26.0542 0.855062 26.2761 0.960011Q26.498 1.06496 26.7145 1.18067Q26.931 1.29638 27.1415 1.42257Q27.352 1.54876 27.5561 1.68514Q27.7602 1.82151 27.9574 1.96773Q28.1546 2.11395 28.3443 2.26967Q28.534 2.42539 28.7159 2.59023Q28.8978 2.75507 29.0714 2.92864Q29.2449 3.10221 29.4098 3.28408Q29.5746 3.46596 29.7303 3.6557Q29.886 3.84545 30.0323 4.0426Q30.1785 4.23976 30.3149 4.44385Q30.4512 4.64795 30.5774 4.85849Q30.7036 5.06903 30.8193 5.2855Q30.935 5.50198 31.04 5.72388Q31.1449 5.94577 31.2389 6.17255Q31.3328 6.39932 31.4155 6.63044Q31.4982 6.86155 31.5694 7.09644Q31.6407 7.33134 31.7003 7.56944Q31.76 7.80755 31.8079 8.04829Q31.8558 8.28904 31.8918 8.53184Q31.9278 8.77465 31.9519 9.01893Q31.9759 9.26321 31.988 9.50837Q32 9.75354 32 9.999L32 22.001Q32 22.2465 31.988 22.4916Q31.9759 22.7368 31.9519 22.9811Q31.9278 23.2254 31.8918 23.4682Q31.8558 23.711 31.8079 23.9517Q31.76 24.1924 31.7003 24.4306Q31.6407 24.6687 31.5694 24.9036Q31.4982 25.1384 31.4155 25.3696Q31.3328 25.6007 31.2389 25.8274Q31.1449 26.0542 31.04 26.2761Q30.935 26.498 30.8193 26.7145Q30.7036 26.931 30.5774 27.1415Q30.4512 27.352 30.3149 27.5561Q30.1785 27.7602 30.0323 27.9574Q29.886 28.1546 29.7303 28.3443Q29.5746 28.534 29.4098 28.7159Q29.2449 28.8978 29.0714 29.0714Q28.8978 29.2449 28.7159 29.4098Q28.534 29.5746 28.3443 29.7303Q28.1546 29.886 27.9574 30.0323Q27.7602 30.1785 27.5561 30.3149Q27.352 30.4512 27.1415 30.5774Q26.931 30.7036 26.7145 30.8193Q26.498 30.935 26.2761 31.04Q26.0542 31.1449 25.8274 31.2389Q25.6007 31.3328 25.3696 31.4155Q25.1384 31.4982 24.9036 31.5694Q24.6687 31.6407 24.4306 31.7003Q24.1924 31.76 23.9517 31.8079Q23.711 31.8558 23.4682 31.8918Q23.2254 31.9278 22.9811 31.9519Q22.7368 31.9759 22.4916 31.988Q22.2465 32 22.001 32L9.999 32Q9.75354 32 9.50837 31.988Q9.26321 31.9759 9.01893 31.9519Q8.77465 31.9278 8.53184 31.8918Q8.28904 31.8558 8.04829 31.8079Q7.80755 31.76 7.56944 31.7003Q7.33134 31.6407 7.09644 31.5694Q6.86155 31.4982 6.63044 31.4155Q6.39932 31.3328 6.17255 31.2389Q5.94577 31.1449 5.72388 31.04Q5.50198 30.935 5.2855 30.8193Q5.06903 30.7036 4.85849 30.5774Q4.64795 30.4512 4.44385 30.3149Q4.23976 30.1785 4.0426 30.0323Q3.84545 29.886 3.6557 29.7303Q3.46596 29.5746 3.28408 29.4098Q3.10221 29.2449 2.92864 29.0714Q2.75507 28.8978 2.59023 28.7159Q2.42539 28.534 2.26967 28.3443Q2.11395 28.1546 1.96773 27.9574Q1.82151 27.7602 1.68514 27.5561Q1.54876 27.352 1.42257 27.1415Q1.29638 26.931 1.18067 26.7145Q1.06496 26.498 0.960011 26.2761Q0.855062 26.0542 0.761128 25.8274Q0.667194 25.6007 0.584501 25.3696Q0.501807 25.1384 0.430553 24.9036Q0.3593 24.6687 0.299657 24.4306Q0.240015 24.1924 0.192128 23.9517Q0.144241 23.711 0.108224 23.4682Q0.0722074 23.2254 0.0481479 22.9811Q0.0240885 22.7368 0.0120442 22.4916Q0 22.2465 0 22.001L0 9.999Q0 9.75354 0.0120442 9.50837Q0.0240885 9.26321 0.0481479 9.01893Q0.0722074 8.77465 0.108224 8.53184Q0.144241 8.28904 0.192128 8.04829Q0.240015 7.80755 0.299657 7.56944Q0.3593 7.33134 0.430553 7.09644Q0.501807 6.86155 0.584501 6.63044Q0.667194 6.39932 0.761128 6.17255Q0.855062 5.94577 0.960011 5.72388Q1.06496 5.50198 1.18067 5.2855Q1.29638 5.06903 1.42257 4.85849Q1.54876 4.64795 1.68514 4.44385Q1.82151 4.23976 1.96773 4.0426Q2.11395 3.84545 2.26967 3.6557Q2.42539 3.46596 2.59023 3.28408Q2.75507 3.10221 2.92864 2.92864Q3.10221 2.75507 3.28408 2.59023Q3.46596 2.42539 3.6557 2.26967Q3.84545 2.11395 4.0426 1.96773Q4.23976 1.82151 4.44385 1.68514Q4.64795 1.54876 4.85849 1.42257Q5.06903 1.29638 5.2855 1.18067Q5.50198 1.06496 5.72388 0.960011Q5.94577 0.855062 6.17255 0.761128Q6.39932 0.667194 6.63044 0.584501Q6.86155 0.501807 7.09644 0.430553Q7.33134 0.3593 7.56944 0.299657Q7.80755 0.240015 8.04829 0.192128Q8.28904 0.144241 8.53184 0.108224Q8.77465 0.0722074 9.01893 0.0481479Q9.26321 0.0240885 9.50837 0.0120442Q9.75354 0 9.999 0Z" transform="matrix(0.9205049 -0.3907311 0.3907311 0.9205049 0 12.50339)" id="path_1" />
    <clipPath id="clip_1">
      <use xlink:href="#path_1" />
    </clipPath>
  </defs>
  <g id="sale">
    <g id="new" transform="translate(1.647583 1.647644)">
      <g id="Rectangle-13">
        <g clip-path="url(#clip_1)">
          <use xlink:href="#path_1" fill="none" stroke="#D0021B" stroke-width="4" />
        </g>
      </g>
      <path d="M0.893 5.8235C1.48834 6.47584 2.261 6.802 3.211 6.802C4.161 6.802 4.94 6.47267 5.548 5.814C6.156 5.15533 6.46 4.351 6.46 3.401C6.46 2.43833 6.16234 1.63084 5.567 0.9785C4.97166 0.326163 4.199 0 3.249 0C2.299 0 1.52 0.326163 0.912 0.9785C0.303997 1.63084 0 2.43833 0 3.401C0 4.36367 0.297664 5.17116 0.893 5.8235ZM1.33 13.452L11.039 0.152L13.3 0.152L3.591 13.452L1.33 13.452ZM3.249 5.073C3.629 5.073 3.92667 4.9115 4.142 4.5885C4.35733 4.2655 4.465 3.86967 4.465 3.401C4.465 2.945 4.34783 2.55233 4.1135 2.223C3.87917 1.89366 3.57834 1.729 3.211 1.729C2.831 1.729 2.53333 1.88733 2.318 2.204C2.10267 2.52067 1.995 2.91966 1.995 3.401C1.995 3.857 2.11217 4.24966 2.3465 4.579C2.58083 4.90833 2.88166 5.073 3.249 5.073ZM9.063 12.6255C9.65834 13.2778 10.431 13.604 11.381 13.604C12.331 13.604 13.11 13.2747 13.718 12.616C14.326 11.9573 14.63 11.153 14.63 10.203C14.63 9.24033 14.3323 8.43284 13.737 7.7805C13.1417 7.12816 12.369 6.802 11.419 6.802C10.469 6.802 9.69 7.12816 9.082 7.7805C8.474 8.43284 8.17 9.24033 8.17 10.203C8.17 11.1657 8.46766 11.9732 9.063 12.6255ZM12.312 11.3905C12.0967 11.7135 11.799 11.875 11.419 11.875C11.0517 11.875 10.7508 11.7103 10.5165 11.381C10.2822 11.0517 10.165 10.659 10.165 10.203C10.165 9.72166 10.2727 9.32267 10.488 9.006C10.7033 8.68933 11.001 8.531 11.381 8.531C11.7483 8.531 12.0492 8.69567 12.2835 9.025C12.5178 9.35433 12.635 9.747 12.635 10.203C12.635 10.6717 12.5273 11.0675 12.312 11.3905Z" transform="translate(14.2074 13.90036)" id="%" fill="#D0021B" fill-rule="evenodd" stroke="none" />
    </g>
  </g>
</svg>

<svg width="46" height="46" xmlns:xlink="http://www.w3.org/1999/xlink" xmlns="http://www.w3.org/2000/svg"><defs><clipPath id="b"><use xlink:href="#a"/></clipPath><path d="M9.999 0h12.002q.245 0 .49.012.246.012.49.036.244.024.487.06t.484.084q.24.048.479.108.238.06.473.13.234.072.466.155.23.082.457.176.227.094.45.199.221.105.438.22.216.116.427.243.21.126.414.262.204.137.401.283.198.146.387.302.19.155.372.32t.355.339q.174.173.339.355.165.182.32.372.156.19.302.387t.283.4q.136.205.262.415.127.211.242.428.116.216.221.438t.199.449q.094.226.177.457.082.232.153.466.072.235.131.473.06.239.108.48.048.24.084.483.036.243.06.487t.036.49q.012.245.012.49v12.002q0 .245-.012.49-.012.246-.036.49-.024.244-.06.487t-.084.484q-.048.24-.108.479-.06.238-.13.473-.072.234-.154.466-.083.23-.177.457-.094.227-.199.45-.105.221-.22.438-.116.216-.243.427-.126.21-.262.414-.137.204-.283.401-.146.198-.302.387-.155.19-.32.372t-.339.355q-.173.174-.355.339-.182.165-.372.32-.19.156-.387.302t-.4.283q-.205.136-.415.262-.211.127-.427.242-.217.116-.439.221t-.449.199q-.226.094-.457.177-.232.082-.466.153-.235.072-.473.131-.239.06-.48.108-.24.048-.483.084-.243.036-.487.06t-.49.036q-.244.012-.49.012H9.999q-.245 0-.49-.012-.246-.012-.49-.036-.244-.024-.487-.06t-.484-.084q-.24-.048-.479-.108-.238-.06-.473-.13-.234-.072-.466-.154-.23-.083-.457-.177-.227-.094-.45-.199-.221-.105-.438-.22-.216-.116-.427-.243-.21-.126-.414-.262-.204-.137-.401-.283-.198-.146-.387-.302-.19-.155-.372-.32t-.355-.339q-.174-.173-.339-.355-.165-.182-.32-.372-.156-.19-.302-.387t-.283-.4q-.136-.205-.262-.415-.127-.211-.242-.427-.116-.217-.221-.439t-.199-.449q-.094-.226-.176-.457-.083-.232-.154-.466-.072-.235-.131-.473-.06-.239-.108-.48-.048-.24-.084-.483-.036-.243-.06-.487t-.036-.49Q0 22.248 0 22.002V9.999q0-.245.012-.49.012-.246.036-.49.024-.244.06-.487t.084-.484Q.24 7.808.3 7.57t.13-.473q.072-.234.155-.466.082-.23.176-.457.094-.227.199-.45.105-.221.22-.438.116-.216.243-.427.126-.21.262-.414.137-.204.283-.401.146-.198.302-.387.155-.19.32-.372t.339-.355q.173-.174.355-.339.182-.165.372-.32.19-.156.387-.302t.4-.283q.205-.136.415-.262.211-.127.428-.242.216-.116.438-.221t.449-.199q.226-.094.457-.176.232-.083.466-.154Q7.331.359 7.57.3q.239-.06.48-.108.24-.048.483-.084.243-.036.487-.06t.49-.036Q9.753 0 9.998 0z" transform="rotate(-23 30.728 6.252)" id="a"/></defs><g clip-path="url(#b)" transform="translate(1.648 1.648)"><use xlink:href="#a" fill="none" stroke="#D0021B" stroke-width="4"/></g><path d="M16.748 21.372c.595.652 1.368.978 2.318.978s1.729-.33 2.337-.988c.608-.659.912-1.463.912-2.413 0-.963-.298-1.77-.893-2.422-.595-.653-1.368-.979-2.318-.979s-1.729.326-2.337.979c-.608.652-.912 1.46-.912 2.422 0 .963.298 1.77.893 2.423zM17.185 29l9.709-13.3h2.261L19.446 29h-2.261zm1.919-8.379c.38 0 .678-.161.893-.484.215-.323.323-.72.323-1.188 0-.456-.117-.849-.352-1.178-.234-.33-.535-.494-.902-.494-.38 0-.678.158-.893.475-.215.317-.323.716-.323 1.197 0 .456.117.849.351 1.178.235.33.536.494.903.494zm5.814 7.553c.595.652 1.368.978 2.318.978s1.729-.33 2.337-.988c.608-.659.912-1.463.912-2.413 0-.963-.298-1.77-.893-2.422-.595-.653-1.368-.979-2.318-.979s-1.729.326-2.337.979c-.608.652-.912 1.46-.912 2.422 0 .963.298 1.77.893 2.423zm3.249-1.235a1.017 1.017 0 01-.893.484c-.367 0-.668-.165-.903-.494-.234-.33-.351-.722-.351-1.178 0-.481.108-.88.323-1.197.215-.317.513-.475.893-.475.367 0 .668.165.902.494.235.33.352.722.352 1.178 0 .469-.108.865-.323 1.188z" fill="#D0021B" fill-rule="evenodd"/></svg>
